X:1220
T:Beare Island Reel, The
M:C|
L:1/8
C:Finbar Dwyer
R:reel
D:Kevin Burke and Mchel  Domhnaill: Portland
Z:Devin McCabe
K:EDor
EB^GB AGEe|dBcA Beec|d2fd AFDF|(3GFE ED EDB,A,|
!B,EEF GFGA|~B2GA Bdef|g2fg effe|1dBAF E3E:|2dBAF E3B|
!|:Beef gefd|B2AG FDED|Beef gefd|Be^df e2ef|
!edBc d3c|BcdB AFDF|G~B3 AFDF|1(3GFE ED E3B:|2(3GFE FD E3E||
